Newaita-dark/mimetypes/16/audio-x-playlist.svg

<svg height="16pt" viewBox="0 0 16 16" width="16pt" xmlns="http://www.w3.org/2000/svg" xmlns:xlink="http://www.w3.org/1999/xlink"><linearGradient id="a"><stop offset="0" stop-opacity=".27451"/><stop offset="1" stop-opacity="0"/></linearGradient><linearGradient id="b" gradientUnits="userSpaceOnUse" x1="8.269022" x2="8.269022" xlink:href="#a" y1="14.0169675" y2="14.67848943751"/><linearGradient id="c"><stop offset="0" stop-opacity=".313725"/><stop offset=".222222" stop-opacity=".27451"/><stop offset="1" stop-opacity="0"/></linearGradient><radialGradient id="d" cx="450.90894" cy="189.57936" gradientTransform="matrix(.00000009 -.0390662 -.0703192 -.00000005 24.742284 31.797667)" gradientUnits="userSpaceOnUse" r="21.166656" xlink:href="#c"/><radialGradient id="e" cx="450.90894" cy="189.57936" gradientTransform="matrix(-.00000009 .0390662 .0703192 .00000005 -9.196526 -3.76374)" gradientUnits="userSpaceOnUse" r="21.166656" xlink:href="#c"/><radialGradient id="f" cx="450.90894" cy="189.57936" gradientTransform="matrix(-.00000009 -.0390662 .0703192 -.00000005 -9.196526 31.797667)" gradientUnits="userSpaceOnUse" r="21.166656" xlink:href="#c"/><radialGradient id="g" cx="450.90894" cy="189.57936" gradientTransform="matrix(.00000009 .0390662 -.0703192 .00000005 24.742283 -3.76374)" gradientUnits="userSpaceOnUse" r="21.166656" xlink:href="#c"/><linearGradient id="h" gradientUnits="userSpaceOnUse" x1="7.7728788" x2="7.7728788" y1="14.01696629816" y2="1.44805523664"><stop offset="0" stop-color="#b0bec5"/><stop offset="1" stop-color="#cfd8dc"/></linearGradient><linearGradient id="i" gradientTransform="matrix(.0149471 0 0 .0546927 7.521212 -8.263145)" gradientUnits="userSpaceOnUse" x1="249.18942" x2="249.18942" xlink:href="#a" y1="233.5" y2="254.66669"/><linearGradient id="j"><stop offset="0" stop-color="#78909c"/><stop offset="1" stop-color="#90a4ae"/></linearGradient><linearGradient id="k" gradientUnits="userSpaceOnUse" x1="10.58434912498" x2="10.58434912498" xlink:href="#j" y1="14.0169675" y2="1.44805256249"/><linearGradient id="l" gradientUnits="userSpaceOnUse" x1="254" x2="254" xlink:href="#j" y1="233.5" y2="-168.66667"/><linearGradient id="m" gradientUnits="userSpaceOnUse" x1="305.56444047967" x2="305.56444047967" xlink:href="#j" y1="165.42758280167" y2="-1.8942624185"/><path d="m3.96875 14.015625h7.609375v.664063h-7.609375zm0 0" fill="url(#b)"/><path d="m11.578125 14.015625h1.320313v-.660156h-1.320313zm0 0" fill="url(#d)"/><path d="m3.96875 14.015625h-1.324219v.664063h1.324219zm0 0" fill="url(#e)"/><path d="m3.96875 14.015625h-1.324219v-.660156h1.324219zm0 0" fill="url(#f)"/><path d="m11.578125 14.015625h1.320313v.664063h-1.320313zm0 0" fill="url(#g)"/><path d="m9.269531 1.449219h-5.960937c-.367188 0-.664063.292969-.664063.660156v11.246094c0 .367187.296875.660156.664063.660156h8.929687c.367188 0 .660157-.292969.660157-.660156v-8.277344zm0 0" fill="url(#h)"/><path d="m2.644531 13.097656v.257813c0 .367187.296875.660156.664063.660156h8.929687c.367188 0 .660157-.292969.660157-.660156v-.257813c0 .367188-.292969.664063-.660157.664063h-8.929687c-.367188 0-.664063-.296875-.664063-.664063zm0 0" fill-opacity=".235294"/><path d="m9.261719 4.507812h3.140625l.496094.496094v.660156h-3.636719zm0 0" fill="url(#i)"/><path d="m3.308594 1.449219c-.367188 0-.664063.292969-.664063.660156v.25c0-.367187.296875-.664063.664063-.664063h5.960937l3.628907 3.628907v-.246094l-3.628907-3.628906zm0 0" fill="#fff" fill-opacity=".392157"/><path d="m12.898438 5.078125-3.628907-3.628906v2.964843c0 .367188.296875.664063.664063.664063zm0 0" fill="url(#k)"/><path d="m9.269531 4.257812v.15625c0 .367188.296875.664063.664063.664063h2.964844l-.15625-.15625h-2.808594c-.367188 0-.664063-.296875-.664063-.664063zm0 0" fill-opacity=".235294"/><path d="m9.269531 1.449219v.246093l3.382813 3.382813h.246094zm0 0" fill="#fff" fill-opacity=".392157"/><path d="m9.269531 1.402344c-.023437 0-.046875.019531-.046875.046875v2.964843c0 .394532.316406.710938.710938.710938h2.964844c.019531 0 .039062-.011719.042968-.03125.007813-.015625.003906-.035156-.007812-.050781l-3.628906-3.628907c-.007813-.007812-.023438-.011718-.035157-.011718zm.046875.160156 3.46875 3.46875h-2.851562c-.34375 0-.617188-.273438-.617188-.617188zm0 0" fill="#212121"/><path d="m3.308594 1.402344c-.394532 0-.710938.316406-.710938.707031v11.246094c0 .390625.316406.707031.710938.707031h8.929687c.390625 0 .707031-.316406.707031-.707031v-8.277344c0-.015625-.003906-.027344-.011718-.035156l-3.628906-3.628907c-.007813-.007812-.019532-.011718-.035157-.011718zm0 .09375h5.941406l3.601562 3.601562v8.257813c0 .339843-.273437.613281-.613281.613281h-8.929687c-.34375 0-.617188-.273438-.617188-.613281v-11.246094c0-.339844.273438-.613281.617188-.613281zm0 0" fill="#212121"/><g stroke="#212121" stroke-linecap="round" stroke-linejoin="round" stroke-width="3"><path d="m163.984358-31.142563h169.358827c2.999713 0 5.374487 2.374774 5.374487 5.374487v10.498998c0 2.999713-2.374774 5.374486-5.374487 5.374486h-169.358827c-2.874726 0-5.249499-2.374773-5.249499-5.374486v-10.498998c0-2.999713 2.374773-5.374487 5.249499-5.374487zm0 0" fill="url(#l)" transform="matrix(.031253 0 0 .031253 -.000001 6.719392)"/><path d="m163.984358 11.228391h169.358827c2.999713 0 5.374487 2.374773 5.374487 5.374487v10.498997c0 2.999714-2.374774 5.374487-5.374487 5.374487h-169.358827c-2.874726 0-5.249499-2.374773-5.249499-5.374487v-10.498997c0-2.999714 2.374773-5.374487 5.249499-5.374487zm0 0" fill="url(#l)" transform="matrix(.031253 0 0 .031253 -.000001 6.719392)"/><path d="m163.984358 53.599345h95.365893c2.874725 0 5.249499 2.374773 5.249499 5.249499v10.623985c0 2.874726-2.374774 5.249499-5.249499 5.249499h-95.365893c-2.874726 0-5.249499-2.374773-5.249499-5.249499v-10.623985c0-2.874726 2.374773-5.249499 5.249499-5.249499zm0 0" fill="url(#l)" transform="matrix(.031253 0 0 .031253 -.000001 6.719392)"/><path d="m163.984358 95.970299h95.365893c2.874725 0 5.249499 2.374773 5.249499 5.249498v10.623986c0 2.874725-2.374774 5.249499-5.249499 5.249499h-95.365893c-2.874726 0-5.249499-2.374774-5.249499-5.249499v-10.623986c0-2.874725 2.374773-5.249498 5.249499-5.249498zm0 0" fill="url(#l)" transform="matrix(.031253 0 0 .031253 -.000001 6.719392)"/><path d="m285.722715 55.349183c-2.374773 0-4.374582 1.999809-4.374582 4.374582v52.869951c0 3.374678 3.624653 5.499475 6.499379 3.87463l48.495369-26.497469c2.999713-1.624845 2.999713-5.999427 0-7.624272l-48.495369-26.49747c-.62494-.374964-1.374869-.499952-2.124797-.499952zm0 0" fill="url(#m)" fill-rule="evenodd" transform="matrix(.031253 0 0 .031253 0 6.719392)"/></g></svg>

<svg xmlns="http://www.w3.org/2000/svg" xmlns:xlink="http://www.w3.org/1999/xlink" width="16px" height="16px" viewBox="0 0 16 16" version="1.1">
<defs>
<linearGradient id="linear0" gradientUnits="userSpaceOnUse" x1="33.076088" y1="56.067867" x2="33.076088" y2="58.713955" gradientTransform="matrix(0.25,0,0,0.25,0,0)">
<stop offset="0" style="stop-color:rgb(0%,0%,0%);stop-opacity:0.27451;"/>
<stop offset="1" style="stop-color:rgb(0%,0%,0%);stop-opacity:0;"/>
</linearGradient>
<radialGradient id="radial0" gradientUnits="userSpaceOnUse" cx="450.908936" cy="189.579361" fx="450.908936" fy="189.579361" r="21.166656" gradientTransform="matrix(0.0000000875,-0.0390663,-0.0703193,-0.00000005,24.742285,31.797667)">
<stop offset="0" style="stop-color:rgb(0%,0%,0%);stop-opacity:0.313725;"/>
<stop offset="0.222222" style="stop-color:rgb(0%,0%,0%);stop-opacity:0.27451;"/>
<stop offset="1" style="stop-color:rgb(0%,0%,0%);stop-opacity:0;"/>
</radialGradient>
<radialGradient id="radial1" gradientUnits="userSpaceOnUse" cx="450.908936" cy="189.579361" fx="450.908936" fy="189.579361" r="21.166656" gradientTransform="matrix(-0.0000000875,0.0390663,0.0703193,0.00000005,-9.196526,-3.76374)">
<stop offset="0" style="stop-color:rgb(0%,0%,0%);stop-opacity:0.313725;"/>
<stop offset="0.222222" style="stop-color:rgb(0%,0%,0%);stop-opacity:0.27451;"/>
<stop offset="1" style="stop-color:rgb(0%,0%,0%);stop-opacity:0;"/>
</radialGradient>
<radialGradient id="radial2" gradientUnits="userSpaceOnUse" cx="450.908936" cy="189.579361" fx="450.908936" fy="189.579361" r="21.166656" gradientTransform="matrix(-0.0000000875,-0.0390663,0.0703193,-0.00000005,-9.196526,31.797667)">
<stop offset="0" style="stop-color:rgb(0%,0%,0%);stop-opacity:0.313725;"/>
<stop offset="0.222222" style="stop-color:rgb(0%,0%,0%);stop-opacity:0.27451;"/>
<stop offset="1" style="stop-color:rgb(0%,0%,0%);stop-opacity:0;"/>
</radialGradient>
<radialGradient id="radial3" gradientUnits="userSpaceOnUse" cx="450.908936" cy="189.579361" fx="450.908936" fy="189.579361" r="21.166656" gradientTransform="matrix(0.0000000875,0.0390663,-0.0703193,0.00000005,24.742283,-3.76374)">
<stop offset="0" style="stop-color:rgb(0%,0%,0%);stop-opacity:0.313725;"/>
<stop offset="0.222222" style="stop-color:rgb(0%,0%,0%);stop-opacity:0.27451;"/>
<stop offset="1" style="stop-color:rgb(0%,0%,0%);stop-opacity:0;"/>
</radialGradient>
<linearGradient id="linear1" gradientUnits="userSpaceOnUse" x1="31.091534" y1="56.067898" x2="31.091534" y2="5.792224" gradientTransform="matrix(0.25,0,0,0.25,0,0)">
<stop offset="0" style="stop-color:rgb(69.01961%,74.509805%,77.254903%);stop-opacity:1;"/>
<stop offset="1" style="stop-color:rgb(81.176472%,84.705883%,86.274511%);stop-opacity:1;"/>
</linearGradient>
<linearGradient id="linear2" gradientUnits="userSpaceOnUse" x1="249.189423" y1="233.5" x2="249.189423" y2="254.666687" gradientTransform="matrix(0.0149471,0,0,0.0546927,7.521212,-8.263145)">
<stop offset="0" style="stop-color:rgb(0%,0%,0%);stop-opacity:0.27451;"/>
<stop offset="1" style="stop-color:rgb(0%,0%,0%);stop-opacity:0;"/>
</linearGradient>
<linearGradient id="linear3" gradientUnits="userSpaceOnUse" x1="42.337395" y1="56.067867" x2="42.337395" y2="5.792208" gradientTransform="matrix(0.25,0,0,0.25,0,0)">
<stop offset="0" style="stop-color:rgb(47.058824%,56.470591%,61.176473%);stop-opacity:1;"/>
<stop offset="1" style="stop-color:rgb(56.470591%,64.313728%,68.235296%);stop-opacity:1;"/>
</linearGradient>
<linearGradient id="linear4" gradientUnits="userSpaceOnUse" x1="254" y1="233.5" x2="254" y2="-168.666672" >
<stop offset="0" style="stop-color:rgb(47.058824%,56.470591%,61.176473%);stop-opacity:1;"/>
<stop offset="1" style="stop-color:rgb(56.470591%,64.313728%,68.235296%);stop-opacity:1;"/>
</linearGradient>
<linearGradient id="linear5" gradientUnits="userSpaceOnUse" x1="254" y1="233.5" x2="254" y2="-168.666672" >
<stop offset="0" style="stop-color:rgb(47.058824%,56.470591%,61.176473%);stop-opacity:1;"/>
<stop offset="1" style="stop-color:rgb(56.470591%,64.313728%,68.235296%);stop-opacity:1;"/>
</linearGradient>
<linearGradient id="linear6" gradientUnits="userSpaceOnUse" x1="254" y1="233.5" x2="254" y2="-168.666672" >
<stop offset="0" style="stop-color:rgb(47.058824%,56.470591%,61.176473%);stop-opacity:1;"/>
<stop offset="1" style="stop-color:rgb(56.470591%,64.313728%,68.235296%);stop-opacity:1;"/>
</linearGradient>
<linearGradient id="linear7" gradientUnits="userSpaceOnUse" x1="254" y1="233.5" x2="254" y2="-168.666672" >
<stop offset="0" style="stop-color:rgb(47.058824%,56.470591%,61.176473%);stop-opacity:1;"/>
<stop offset="1" style="stop-color:rgb(56.470591%,64.313728%,68.235296%);stop-opacity:1;"/>
</linearGradient>
<linearGradient id="linear8" gradientUnits="userSpaceOnUse" x1="305.564453" y1="165.427582" x2="305.564453" y2="-1.894262" >
<stop offset="0" style="stop-color:rgb(47.058824%,56.470591%,61.176473%);stop-opacity:1;"/>
<stop offset="1" style="stop-color:rgb(56.470591%,64.313728%,68.235296%);stop-opacity:1;"/>
</linearGradient>
</defs>
<g id="surface1">
<path style=" stroke:none;fill-rule:nonzero;fill:url(#linear0);" d="M 3.96875 14.015625 L 11.578125 14.015625 L 11.578125 14.679688 L 3.96875 14.679688 Z M 3.96875 14.015625 "/>
<path style=" stroke:none;fill-rule:nonzero;fill:url(#radial0);" d="M 11.578125 14.015625 L 12.898438 14.015625 L 12.898438 13.355469 L 11.578125 13.355469 Z M 11.578125 14.015625 "/>
<path style=" stroke:none;fill-rule:nonzero;fill:url(#radial1);" d="M 3.96875 14.015625 L 2.648438 14.015625 L 2.648438 14.679688 L 3.96875 14.679688 Z M 3.96875 14.015625 "/>
<path style=" stroke:none;fill-rule:nonzero;fill:url(#radial2);" d="M 3.96875 14.015625 L 2.648438 14.015625 L 2.648438 13.355469 L 3.96875 13.355469 Z M 3.96875 14.015625 "/>
<path style=" stroke:none;fill-rule:nonzero;fill:url(#radial3);" d="M 11.578125 14.015625 L 12.898438 14.015625 L 12.898438 14.679688 L 11.578125 14.679688 Z M 11.578125 14.015625 "/>
<path style=" stroke:none;fill-rule:nonzero;fill:url(#linear1);" d="M 9.273438 1.449219 L 3.308594 1.449219 C 2.941406 1.449219 2.648438 1.742188 2.648438 2.109375 L 2.648438 13.355469 C 2.648438 13.722656 2.941406 14.015625 3.308594 14.015625 L 12.238281 14.015625 C 12.605469 14.015625 12.898438 13.722656 12.898438 13.355469 L 12.898438 5.078125 Z M 9.273438 1.449219 "/>
<path style=" stroke:none;fill-rule:nonzero;fill:rgb(0%,0%,0%);fill-opacity:0.235294;" d="M 2.648438 13.097656 L 2.648438 13.355469 C 2.648438 13.722656 2.941406 14.015625 3.308594 14.015625 L 12.238281 14.015625 C 12.605469 14.015625 12.898438 13.722656 12.898438 13.355469 L 12.898438 13.097656 C 12.898438 13.464844 12.605469 13.757812 12.238281 13.757812 L 3.308594 13.757812 C 2.941406 13.757812 2.648438 13.464844 2.648438 13.097656 Z M 2.648438 13.097656 "/>
<path style=" stroke:none;fill-rule:nonzero;fill:url(#linear2);" d="M 9.261719 4.507812 L 12.402344 4.507812 L 12.898438 5.003906 L 12.898438 5.664062 L 9.261719 5.664062 Z M 9.261719 4.507812 "/>
<path style=" stroke:none;fill-rule:nonzero;fill:rgb(100%,100%,100%);fill-opacity:0.392157;" d="M 3.308594 1.449219 C 2.941406 1.449219 2.648438 1.742188 2.648438 2.109375 L 2.648438 2.359375 C 2.648438 1.992188 2.941406 1.695312 3.308594 1.695312 L 9.273438 1.695312 L 12.898438 5.324219 L 12.898438 5.078125 L 9.273438 1.449219 Z M 3.308594 1.449219 "/>
<path style=" stroke:none;fill-rule:nonzero;fill:url(#linear3);" d="M 12.898438 5.078125 L 9.273438 1.449219 L 9.273438 4.414062 C 9.273438 4.78125 9.566406 5.078125 9.933594 5.078125 Z M 12.898438 5.078125 "/>
<path style=" stroke:none;fill-rule:nonzero;fill:rgb(0%,0%,0%);fill-opacity:0.235294;" d="M 9.273438 4.257812 L 9.273438 4.414062 C 9.273438 4.78125 9.566406 5.078125 9.933594 5.078125 L 12.898438 5.078125 L 12.742188 4.921875 L 9.933594 4.921875 C 9.566406 4.921875 9.273438 4.625 9.273438 4.257812 Z M 9.273438 4.257812 "/>
<path style=" stroke:none;fill-rule:nonzero;fill:rgb(100%,100%,100%);fill-opacity:0.392157;" d="M 9.273438 1.449219 L 9.273438 1.695312 L 12.652344 5.078125 L 12.898438 5.078125 Z M 9.273438 1.449219 "/>
<path style=" stroke:none;fill-rule:nonzero;fill:rgb(12.941177%,12.941177%,12.941177%);fill-opacity:1;" d="M 9.269531 1.402344 C 9.246094 1.402344 9.226562 1.421875 9.226562 1.449219 L 9.226562 4.414062 C 9.226562 4.804688 9.539062 5.125 9.933594 5.125 L 12.898438 5.125 C 12.917969 5.125 12.9375 5.113281 12.945312 5.09375 C 12.949219 5.078125 12.945312 5.054688 12.933594 5.042969 L 9.304688 1.414062 C 9.296875 1.40625 9.28125 1.402344 9.269531 1.402344 Z M 9.320312 1.5625 L 12.785156 5.03125 L 9.933594 5.03125 C 9.589844 5.03125 9.320312 4.757812 9.320312 4.414062 Z M 9.320312 1.5625 "/>
<path style=" stroke:none;fill-rule:nonzero;fill:rgb(12.941177%,12.941177%,12.941177%);fill-opacity:1;" d="M 3.308594 1.402344 C 2.914062 1.402344 2.601562 1.71875 2.601562 2.109375 L 2.601562 13.355469 C 2.601562 13.746094 2.914062 14.0625 3.308594 14.0625 L 12.238281 14.0625 C 12.628906 14.0625 12.945312 13.746094 12.945312 13.355469 L 12.945312 5.078125 C 12.945312 5.0625 12.941406 5.054688 12.933594 5.042969 L 9.304688 1.414062 C 9.296875 1.40625 9.28125 1.402344 9.273438 1.402344 Z M 3.308594 1.496094 L 9.25 1.496094 L 12.851562 5.09375 L 12.851562 13.355469 C 12.851562 13.695312 12.578125 13.96875 12.238281 13.96875 L 3.308594 13.96875 C 2.964844 13.96875 2.695312 13.695312 2.695312 13.355469 L 2.695312 2.109375 C 2.695312 1.769531 2.964844 1.496094 3.308594 1.496094 Z M 3.308594 1.496094 "/>
<path style="fill-rule:nonzero;fill:url(#linear4);stroke-width:3;stroke-linecap:round;stroke-linejoin:round;stroke:rgb(12.941177%,12.941177%,12.941177%);stroke-opacity:1;stroke-miterlimit:4;" d="M 164.109268 -31.14255 L 333.343027 -31.14255 C 336.342739 -31.14255 338.717511 -28.767778 338.717511 -25.768066 L 338.717511 -15.269073 C 338.717511 -12.269361 336.342739 -9.894589 333.343027 -9.894589 L 164.109268 -9.894589 C 161.109555 -9.894589 158.734783 -12.269361 158.734783 -15.269073 L 158.734783 -25.768066 C 158.734783 -28.767778 161.109555 -31.14255 164.109268 -31.14255 Z M 164.109268 -31.14255 " transform="matrix(0.031253,0,0,0.031253,-0.0000005,6.719392)"/>
<path style="fill-rule:nonzero;fill:url(#linear5);stroke-width:3;stroke-linecap:round;stroke-linejoin:round;stroke:rgb(12.941177%,12.941177%,12.941177%);stroke-opacity:1;stroke-miterlimit:4;" d="M 164.109268 11.228384 L 333.343027 11.228384 C 336.342739 11.228384 338.717511 13.603156 338.717511 16.602868 L 338.717511 27.101861 C 338.717511 30.101573 336.342739 32.476345 333.343027 32.476345 L 164.109268 32.476345 C 161.109555 32.476345 158.734783 30.101573 158.734783 27.101861 L 158.734783 16.602868 C 158.734783 13.603156 161.109555 11.228384 164.109268 11.228384 Z M 164.109268 11.228384 " transform="matrix(0.031253,0,0,0.031253,-0.0000005,6.719392)"/>
<path style="fill-rule:nonzero;fill:url(#linear6);stroke-width:3;stroke-linecap:round;stroke-linejoin:round;stroke:rgb(12.941177%,12.941177%,12.941177%);stroke-opacity:1;stroke-miterlimit:4;" d="M 164.109268 53.599318 L 259.350128 53.599318 C 262.224852 53.599318 264.599624 55.97409 264.599624 58.848814 L 264.599624 69.472795 C 264.599624 72.347519 262.224852 74.722291 259.350128 74.722291 L 164.109268 74.722291 C 161.109555 74.722291 158.734783 72.347519 158.734783 69.472795 L 158.734783 58.848814 C 158.734783 55.97409 161.109555 53.599318 164.109268 53.599318 Z M 164.109268 53.599318 " transform="matrix(0.031253,0,0,0.031253,-0.0000005,6.719392)"/>
<path style="fill-rule:nonzero;fill:url(#linear7);stroke-width:3;stroke-linecap:round;stroke-linejoin:round;stroke:rgb(12.941177%,12.941177%,12.941177%);stroke-opacity:1;stroke-miterlimit:4;" d="M 164.109268 95.970252 L 259.350128 95.970252 C 262.224852 95.970252 264.599624 98.345024 264.599624 101.219748 L 264.599624 111.843729 C 264.599624 114.718453 262.224852 117.093225 259.350128 117.093225 L 164.109268 117.093225 C 161.109555 117.093225 158.734783 114.718453 158.734783 111.843729 L 158.734783 101.219748 C 158.734783 98.345024 161.109555 95.970252 164.109268 95.970252 Z M 164.109268 95.970252 " transform="matrix(0.031253,0,0,0.031253,-0.0000005,6.719392)"/>
<path style="fill-rule:evenodd;fill:url(#linear8);stroke-width:3;stroke-linecap:round;stroke-linejoin:round;stroke:rgb(12.941177%,12.941177%,12.941177%);stroke-opacity:1;stroke-miterlimit:4;" d="M 285.722581 55.349165 C 283.347809 55.349165 281.348001 57.348974 281.348001 59.723746 L 281.348001 112.593672 C 281.348001 115.968348 284.972653 118.093144 287.847377 116.4683 L 336.342723 90.095831 C 339.342436 88.345999 339.342436 83.971419 336.342723 82.346575 L 287.847377 55.849117 C 287.222437 55.599141 286.472509 55.349165 285.722581 55.349165 Z M 285.722581 55.349165 " transform="matrix(0.031253,0,0,0.031253,0,6.719391)"/>
</g>
</svg>
